svgs/seriesguide.svg

<svg width="192" height="192" viewBox="0 0 192 192" fill="none" xmlns="http://www.w3.org/2000/svg">
<path fill-rule="evenodd" clip-rule="evenodd" d="M175.995 58.2701C176.084 61.4957 174.885 64.6239 172.664 66.965L90.3505 153.742C88.0981 156.117 84.9831 157.483 81.7106 157.53C78.4381 157.578 75.2847 156.303 72.9643 153.995L19.5821 100.896C17.2944 98.6206 16.0056 95.5285 16 92.3017C15.9944 89.0749 17.2725 85.9784 19.5525 83.6948L31.3308 71.898C36.0664 67.155 43.748 67.1418 48.4999 71.8684L80.9342 104.131L142.915 38.7889C147.527 33.9263 155.206 33.7163 160.078 38.3198L172.194 49.7701C174.539 51.9864 175.906 55.0445 175.995 58.2701ZM151.731 47.1518L163.848 58.6021L81.5341 145.379L28.1519 92.2807L39.9302 80.484L81.1868 121.521L151.731 47.1518Z" fill="black"/>
</svg>

<svg width="192" height="192" fill="none" xmlns="http://www.w3.org/2000/svg"><path fill-rule="evenodd" clip-rule="evenodd" d="M175.995 58.27a12.147 12.147 0 0 1-3.331 8.695l-82.313 86.777a12.148 12.148 0 0 1-17.387.253l-53.382-53.099a12.151 12.151 0 0 1-.03-17.201l11.779-11.797c4.735-4.743 12.417-4.756 17.169-.03l32.434 32.263 61.981-65.342c4.612-4.863 12.291-5.073 17.163-.47l12.116 11.451a12.156 12.156 0 0 1 3.801 8.5Zm-24.264-11.118 12.117 11.45-82.314 86.777-53.382-53.098L39.93 80.484l41.257 41.037 70.544-74.37Z" fill="#000"/></svg>
